assets/images/certificates/fcc.svg

<svg xmlns="http://www.w3.org/2000/svg" xmlns:xlink="http://www.w3.org/1999/xlink" width="712" height="484"><defs><path id="a" d="M136.83 9.96c2.35 2.34 4.7 5.71 4.71 9.1.01 5.86-6.87 13.81-19.59 26.87C68.91 97 42.23 159.54 42.41 234.97c.2 83.45 28.26 150.47 82.8 202.41 11.47 10.25 16.18 18.31 16.2 25.21 0 3.38-2.33 6.9-4.67 10.29-2.2 2.35-6.89 4.71-10.27 4.71-12.62.03-30.28-14.89-53.34-43.92-44.9-55.03-65.2-115.8-66.34-198.62C5.74 152.19 31.72 96 82.57 37.99c18.3-20.73 33.56-31.5 43.97-31.52 3.38-.01 6.9 1.15 10.29 3.49Z"/><path id="b" d="M415.42 249.9c-19.93-5.09 61.85-101.71-83.5-217.39 0 0 19.07 60.59-77.09 195.8-96.21 135.16 42.78 215.68 42.78 215.68s-65.23-34.76 10.6-158.52c13.57-22.45 31.33-42.78 53.38-88.54 0 0 19.52 27.55 9.33 87.28-15.24 90.26 66.09 64.43 67.35 65.69 28.41 33.45-23.53 92.24-26.69 94.09-3.15 1.8 148.33-91.12 40.71-230.96-7.37 7.37-16.95 41.97-36.87 36.87Z"/><path id="c" d="M575.26 9.9c-2.35 2.34-4.7 5.71-4.71 9.1-.01 5.86 6.87 13.81 19.59 26.87 53.04 51.06 79.72 113.61 79.54 189.04-.2 83.45-28.26 150.47-82.8 202.41-11.47 10.25-16.18 18.31-16.2 25.21 0 3.38 2.33 6.9 4.67 10.29 2.2 2.35 6.89 4.7 10.27 4.71 12.62.03 30.28-14.89 53.34-43.92 44.9-55.03 65.2-115.8 66.34-198.62 1.05-82.86-24.93-139.05-75.78-197.06-18.3-20.73-33.56-31.5-43.97-31.52-3.38-.01-6.9 1.15-10.29 3.49Z"/></defs><use fill="#0a0a23" xlink:href="#a"/><use fill-opacity="0" stroke="#000" stroke-opacity="0" xlink:href="#a"/><use fill="#0a0a23" xlink:href="#b"/><use fill-opacity="0" stroke="#000" stroke-opacity="0" xlink:href="#b"/><use fill="#0a0a23" xlink:href="#c"/><use fill-opacity="0" stroke="#000" stroke-opacity="0" xlink:href="#c"/></svg>

<svg xmlns="http://www.w3.org/2000/svg" xmlns:xlink="http://www.w3.org/1999/xlink" width="712" height="484" preserveAspectRatio="xMidYMid meet" version="1.1" viewBox="0 0 712 484"><defs><path id="f2jrM5bTZu" d="M136.83 9.96C139.18 12.3 141.53 15.67 141.54 19.06C141.55 24.92 134.67 32.87 121.95 45.93C68.91 97 42.23 159.54 42.41 234.97C42.61 318.42 70.67 385.44 125.21 437.38C136.68 447.63 141.39 455.69 141.41 462.59C141.41 465.97 139.08 469.49 136.74 472.88C134.54 475.23 129.85 477.59 126.47 477.59C113.85 477.62 96.19 462.7 73.13 433.67C28.23 378.64 7.93 317.87 6.79 235.05C5.74 152.19 31.72 96 82.57 37.99C100.87 17.26 116.13 6.49 126.54 6.47C129.92 6.46 133.44 7.62 136.83 9.96Z"/><path id="fePvRWSP7" d="M415.42 249.9C395.49 244.81 477.27 148.19 331.92 32.51C331.92 32.51 350.99 93.1 254.83 228.31C158.62 363.47 297.61 443.99 297.61 443.99C297.61 443.99 232.38 409.23 308.21 285.47C321.78 263.02 339.54 242.69 361.59 196.93C361.59 196.93 381.11 224.48 370.92 284.21C355.68 374.47 437.01 348.64 438.27 349.9C466.68 383.35 414.74 442.14 411.58 443.99C408.43 445.79 559.91 352.87 452.29 213.03C444.92 220.4 435.34 255 415.42 249.9Z"/><path id="a1dIEIC07z" d="M575.26 9.9C572.91 12.24 570.56 15.61 570.55 19C570.54 24.86 577.42 32.81 590.14 45.87C643.18 96.93 669.86 159.48 669.68 234.91C669.48 318.36 641.42 385.38 586.88 437.32C575.41 447.57 570.7 455.63 570.68 462.53C570.68 465.91 573.01 469.43 575.35 472.82C577.55 475.17 582.24 477.52 585.62 477.53C598.24 477.56 615.9 462.64 638.96 433.61C683.86 378.58 704.16 317.81 705.3 234.99C706.35 152.13 680.37 95.94 629.52 37.93C611.22 17.2 595.96 6.43 585.55 6.41C582.17 6.4 578.65 7.56 575.26 9.9Z"/></defs><g><g><g><use fill="#0a0a23" fill-opacity="1" opacity="1" xlink:href="#f2jrM5bTZu"/><g><use fill-opacity="0" stroke="#000" stroke-opacity="0" stroke-width="1" opacity="1" xlink:href="#f2jrM5bTZu"/></g></g><g><use fill="#0a0a23" fill-opacity="1" opacity="1" xlink:href="#fePvRWSP7"/><g><use fill-opacity="0" stroke="#000" stroke-opacity="0" stroke-width="1" opacity="1" xlink:href="#fePvRWSP7"/></g></g><g><use fill="#0a0a23" fill-opacity="1" opacity="1" xlink:href="#a1dIEIC07z"/><g><use fill-opacity="0" stroke="#000" stroke-opacity="0" stroke-width="1" opacity="1" xlink:href="#a1dIEIC07z"/></g></g></g></g></svg>
